Newaita/actions/16/edit-paste.svg

<?xml version="1.0" encoding="UTF-8"?>
<svg xmlns="http://www.w3.org/2000/svg" xmlns:xlink="http://www.w3.org/1999/xlink" width="16pt" height="16pt" viewBox="0 0 16 16" version="1.1">
<g id="surface1">
<path style=" stroke:none;fill-rule:nonzero;fill:rgb(25.882354%,25.882354%,25.882354%);fill-opacity:1;" d="M 7.9375 0.785156 L 3.308594 0.785156 C 2.574219 0.785156 1.984375 1.375 1.984375 2.109375 L 1.984375 14.015625 C 1.984375 14.75 2.574219 15.339844 3.308594 15.339844 L 12.570312 15.339844 C 13.300781 15.339844 13.890625 14.75 13.890625 14.015625 L 13.890625 6.078125 C 13.890625 5.945312 13.839844 5.820312 13.746094 5.726562 L 8.949219 0.933594 C 8.859375 0.839844 8.730469 0.785156 8.601562 0.785156 Z M 3.636719 1.777344 L 7.929688 1.777344 L 7.929688 5.355469 C 7.929688 6.085938 8.523438 6.675781 9.253906 6.675781 L 12.898438 6.675781 L 12.898438 6.738281 C 12.898438 6.742188 12.898438 6.746094 12.898438 6.746094 L 12.898438 13.6875 C 12.898438 14.050781 12.605469 14.347656 12.238281 14.347656 L 3.636719 14.347656 C 3.273438 14.347656 2.976562 14.050781 2.976562 13.6875 L 2.976562 2.441406 C 2.976562 2.074219 3.273438 1.777344 3.636719 1.777344 Z M 8.925781 2.308594 L 12.300781 5.683594 L 9.585938 5.683594 C 9.21875 5.683594 8.925781 5.390625 8.925781 5.023438 Z M 8.925781 2.308594 "/>
<path style=" stroke:none;fill-rule:nonzero;fill:rgb(55.29412%,43.137255%,38.82353%);fill-opacity:1;" d="M 3.804688 9.597656 C 3.796875 9.46875 3.84375 9.347656 3.933594 9.253906 C 4.023438 9.164062 4.144531 9.109375 4.273438 9.109375 L 8.242188 9.109375 C 8.410156 9.109375 8.566406 9.199219 8.648438 9.347656 C 8.730469 9.496094 8.730469 9.675781 8.644531 9.820312 L 6.660156 13.128906 C 6.574219 13.269531 6.421875 13.355469 6.257812 13.355469 C 6.09375 13.355469 5.941406 13.269531 5.855469 13.128906 L 3.871094 9.820312 C 3.828125 9.753906 3.808594 9.675781 3.804688 9.597656 Z M 5.101562 10.046875 L 6.257812 11.976562 L 7.414062 10.046875 Z M 5.101562 10.046875 "/>
</g>
</svg>

<svg xmlns="http://www.w3.org/2000/svg" width="16pt" height="16pt" viewBox="0 0 16 16"><path d="M7.938.785h-4.63A1.32 1.32 0 0 0 1.985 2.11v11.907c0 .734.59 1.324 1.325 1.324h9.261c.73 0 1.32-.59 1.32-1.324V6.078a.493.493 0 0 0-.144-.351L8.95.934a.488.488 0 0 0-.347-.149zm-4.301.992H7.93v3.578c0 .73.593 1.32 1.324 1.32h3.644v7.012a.66.66 0 0 1-.66.66H3.637a.662.662 0 0 1-.66-.66V2.441c0-.367.296-.664.66-.664zm5.289.532L12.3 5.684H9.586a.657.657 0 0 1-.66-.66zm0 0" fill="#424242"/><path d="M3.805 9.598a.452.452 0 0 1 .129-.344c.09-.09.21-.145.34-.145h3.968c.168 0 .324.09.406.239a.475.475 0 0 1-.003.472L6.66 13.13a.472.472 0 0 1-.805 0L3.871 9.82a.449.449 0 0 1-.066-.222zm1.297.449l1.156 1.93 1.156-1.93zm0 0" fill="#8d6e63"/></svg>
